X: 04101
T: ZO\"E'S REEL
T: (I think it's Michael's reel, too!)
C: Bob McQuillen  17 Sept '79
B: Bob's Note Book 4 #101
R: reel
Z: 2005 John Chambers <jc:trillian.mit.edu>
M: C
L: 1/8
K: Em
GE \
| B,EGA FDGA | Bega fdga | bgab geBA | GEED E2GE |
| B,EGA FDGA | Bega fdga | bgab gege | Beed e2  :|
|: ga \
| bgab gege | Beed edGA | BGAB GEGA | BEED E2ga |
| bgab gege | Beed edBA | GAGF EDBA | GEED E2  :|
%%begintext align
%% Well, you see, Zo\"e  Richardson  married
%% that  nice  young  feller Michael French, so I guess it belongs to them both.
%% With love always -
%% endtext

%%sep 1 0 500
%%sep 1 0 500
%%center -- END of Bob's Note Book 4 --

%%newpage

%%sep 1 1 500

